X: 178
T: The Dear Little Shamrock
N:"Moderate" "collected by J. O'Neill"
B:O'Neill's 178
Z:Transcribed by henrik.norbeck@mailbox.swipnet.se
M:3/4
L:1/8
K:D
Ad|f4 ff|f4 f2|e2 f2 e2|d4 dd|
(d2 f2 a2)|(a2 g2 f2)|(f2 e2) z2|z2 z2 de|
(f2 g2 f2)|(f2 e2 d2)|(e2 f2 e2)|(d4 cB)|
A2 d2 f2|a2 g2 e2|e2 d2 z2|z2 z2 cd|
e4 (fe)|e2 c2 d2|e2 c2 a2|e2 c3 e|
a4 gf|e4 dc|"rall."B2 e2 d2|c2 HA2 "a tempo."Ad|
f3 f f2|f2 d2 (A/B/c/d/e/f/)|g3 g g2|g2 e2 A2|
d4 ef|g3 a b2|a2 g2 f2|e2 Hd2||


